svgs/duotone/bottle-water.svg

<svg xmlns="http://www.w3.org/2000/svg" viewBox="0 0 320 512"><!--! Font Awesome Pro 6.4.2 by @fontawesome - https://fontawesome.com License - https://fontawesome.com/license (Commercial License) Copyright 2023 Fonticons, Inc. --><path class="fa-primary" style="fill:var(--fa-primary-color,inherit);opacity:var(--fa-primary-opacity,1);" d="M120 0C106.7 0 96 10.7 96 24V96H224V24c0-13.3-10.7-24-24-24H120zM96 240c0 8.8 7.2 16 16 16h96c8.8 0 16-7.2 16-16s-7.2-16-16-16H112c-8.8 0-16 7.2-16 16zm0 128c0 8.8 7.2 16 16 16h96c8.8 0 16-7.2 16-16s-7.2-16-16-16H112c-8.8 0-16 7.2-16 16z"/><path class="fa-secondary" style="fill:var(--fa-secondary-color,inherit);opacity:var(--fa-secondary-opacity,.4);" d="M120 0h80c13.3 0 24 10.7 24 24V64H96V24c0-13.3 10.7-24 24-24zM32 151.7c0-15.6 9-29.8 23.2-36.5L96.3 96H223.7l41.1 19.3c14.1 6.6 23.2 20.8 23.2 36.5c0 14.4-7.5 27-18.9 34.1c11.5 8.8 18.9 22.6 18.9 38.2c0 16.7-8.5 31.4-21.5 40c12.9 8.6 21.5 23.3 21.5 40s-8.5 31.4-21.5 40c12.9 8.6 21.5 23.3 21.5 40s-8.5 31.4-21.5 40c12.9 8.6 21.5 23.3 21.5 40c0 26.5-21.5 48-48 48H80c-26.5 0-48-21.5-48-48c0-16.7 8.5-31.4 21.5-40C40.5 415.4 32 400.7 32 384s8.5-31.4 21.5-40C40.5 335.4 32 320.7 32 304s8.5-31.4 21.5-40C40.5 255.4 32 240.7 32 224c0-15.6 7.4-29.4 18.9-38.2C39.5 178.7 32 166.1 32 151.7zM96 240c0 8.8 7.2 16 16 16h96c8.8 0 16-7.2 16-16s-7.2-16-16-16H112c-8.8 0-16 7.2-16 16zm16 112c-8.8 0-16 7.2-16 16s7.2 16 16 16h96c8.8 0 16-7.2 16-16s-7.2-16-16-16H112z"/></svg>

<svg xmlns="http://www.w3.org/2000/svg" viewBox="0 0 320 512"><!--! Font Awesome Pro 6.1.1 by @fontawesome - https://fontawesome.com License - https://fontawesome.com/license (Commercial License) Copyright 2022 Fonticons, Inc. --><defs><style>.fa-secondary{opacity:.4}</style></defs><path class="fa-primary" d="M200 0C213.3 0 224 10.75 224 24V64H96V24C96 10.75 106.7 0 120 0H200zM96 240C96 231.2 103.2 224 112 224H208C216.8 224 224 231.2 224 240C224 248.8 216.8 256 208 256H112C103.2 256 96 248.8 96 240zM96 368C96 359.2 103.2 352 112 352H208C216.8 352 224 359.2 224 368C224 376.8 216.8 384 208 384H112C103.2 384 96 376.8 96 368z"/><path class="fa-secondary" d="M200 0C213.3 0 224 10.75 224 24V64H96V24C96 10.75 106.7 0 120 0H200zM32 151.7C32 136.1 41.04 121.9 55.19 115.3L79.6 103.8C90.58 98.67 102.6 96 114.7 96H205.3C217.4 96 229.4 98.67 240.4 103.8L264.8 115.3C278.1 121.9 288 136.1 288 151.7C288 166.1 280.5 178.7 269.1 185.8C280.6 194.6 288 208.4 288 223.1C288 240.7 279.5 255.4 266.5 263.1C279.5 272.6 288 287.3 288 303.1C288 320.7 279.5 335.4 266.5 344C279.5 352.6 288 367.3 288 384C288 400.7 279.5 415.4 266.5 424C279.5 432.6 288 447.3 288 464C288 490.5 266.5 512 240 512H80C53.49 512 32 490.5 32 464C32 447.3 40.52 432.6 53.46 424C40.52 415.4 32 400.7 32 384C32 367.3 40.52 352.6 53.46 344C40.52 335.4 32 320.7 32 303.1C32 287.3 40.52 272.6 53.46 263.1C40.52 255.4 32 240.7 32 223.1C32 208.4 39.4 194.6 50.87 185.8C39.53 178.7 32 166.1 32 151.7L32 151.7zM112 256H208C216.8 256 224 248.8 224 240C224 231.2 216.8 224 208 224H112C103.2 224 96 231.2 96 240C96 248.8 103.2 256 112 256zM112 352C103.2 352 96 359.2 96 368C96 376.8 103.2 384 112 384H208C216.8 384 224 376.8 224 368C224 359.2 216.8 352 208 352H112z"/></svg>
